X: 41563
T: Union, The
R: reel
M: 4/4
K: Amajor
|e2 (3cBA eAcA|eAcA Bcdf|e2 (3cBA eAcA|(3Bcd cA BAFA|
e2 (3cBA eAcA|eAcA Bcdf|~e3c dcBA|FABc d3A||
df~f2 dfef|df~f2 afef|df~f2 dfec|dcBA FABc|
df~f2 dfef|df~f2 afef|df~f2 dfec|dcBA Bcdf||

